!!!SOCIAL_FUNCTION:	lightning songs
!!!PDT:	1932
!!!OTL: No_54_Song_to_the_Woodpecker.krn
!!!REG: Southwest
!!!LANG: Non-Tone
!!!LING_GROUP: Yuman-Cochimi
**kern	**kern
*staff2	*staff1
=1-	=1-
*clefF4	*clefF4
*k[]	*k[]
*M2/4	*M2/4
8GG^/L	4r
8GG/J	.
8GG/	8.r
16r	.
16GG/	16A\
=2	=2
8GG^/L	4A\
8GG/J	.
8GG/	8.G\L
16r	.
16GG/	16E\Jk
=3	=3
2r	4E\
.	8G\
.	8r
=4	=4
2r	8A\L
.	[8G\J
.	8.G\L]
.	16E\Jk
=5	=5
2r	4E\
.	8E\
.	8r
=6	=6
2r	4G\
.	8.G\L
.	16E\Jk
=7	=7
2r	4E\
.	8D\
.	8r
=8	=8
2r	8C/L
.	8G/J
.	8.G\L
.	16G\Jk
=9	=9
2r	8G\L
.	8G\J
.	8G\
.	8r
=10	=10
2r	8C/L
.	8G/J
.	8.G\L
.	16G\Jk
=11	=11
2r	8G\L
.	8G\J
.	8G\
.	8r
=12	=12
2r	8E\L
.	8E\J
.	8D\
.	8r
=13	=13
2r	8E\L
.	8E\J
.	8D\
.	8r
=14	=14
2r	8E\L
.	8G\J
.	8.G\L
.	16G\Jk
=15	=15
2r	8G\L
.	8G\J
.	8G\
.	8r
=16	=16
2r	8C/L
.	8G/J
.	8.G\L
.	16G\Jk
=17	=17
2r	8G\L
.	8G\J
.	8G\
.	8r
=18	=18
2r	8E\L
.	8E\J
.	8D\
.	8r
=19	=19
2r	8E\L
.	8E\J
.	8D\
.	8r
=20	=20
2r	8E\L
.	8G\J
.	8.G\L
.	16A\Jk
=21	=21
2r	8G\L
.	8G\J
.	8G\
.	8r
=22	=22
2r	8c\L
.	8c\J
.	8.A\L
.	16c\Jk
=23	=23
2r	8A\L
.	8A\J
.	8.A\L
.	16G\Jk
=24	=24
2r	8G\L
.	[8A\J
.	8.A\L]
.	16A\Jk
=25	=25
2r	8G\L
.	8G\J
.	8G\
.	8r
=26	=26
2r	8E\L
.	8E\J
.	8D\
.	8r
=27	=27
2r	8E\L
.	8E\J
.	8D\
.	8r
=28	=28
2r	8E\L
.	8G\J
.	8.G\L
.	16A\Jk
=29	=29
2r	8G\L
.	8G\J
.	8G\
.	8r
=30	=30
2r	8.r
.	16G\
.	12G\L
.	12E\
.	12A\J
=31	=31
2r	8G\L
.	8G\J
.	8G\
.	8r
=32	=32
2r	8E\L
.	8E\J
.	8D\
.	8r
=33	=33
2r	8E\L
.	8E\J
.	8D\
.	8r
=34	=34
2r	8E\L
.	8G\J
.	8.G\L
.	16A\Jk
=35	=35
2r	8G\L
.	8G\J
.	8G\
.	8r
=36	=36
2r	8.E\L
.	16G\Jk
.	12G\L
.	12E\
.	12A\J
=37	=37
2r	8G\L
.	8G\J
.	8G\
.	8r
=38	=38
2r	8E\L
.	8E\J
.	8D\
.	8r
=39	=39
2r	8E\L
.	8E\J
.	8D\
.	8r
=40	=40
2r	8E\L
.	8E\J
.	8D\
.	8r
=41	=41
2r	8E\L
.	8G\J
.	8.G\L
.	16A\Jk
=42	=42
2r	8G\L
.	8G\J
.	8G\
.	8r
=43	=43
2r	8.r
.	16G\
.	12G\L
.	12E\
.	12A\J
=44	=44
2r	8G\L
.	8G\J
.	8G\
.	8r
=45	=45
2r	8E\L
.	8E\J
.	8D\
.	8r
=46	=46
2r	8E\L
.	8E\J
.	8D\
.	8r
=47	=47
2r	8E\L
.	8G\J
.	8.G\L
.	16A\Jk
=48	=48
2r	8G\L
.	8G\J
.	8G\
.	8r
=49	=49
2r	8G\L
.	8G\J
.	8G\
.	8r
=50	=50
2r	8G\L
.	8G\J
.	8G\
.	8r
=51	=51
2r	8.C/L
.	16G/Jk
.	12G\L
.	12E\
.	12A\J
=52	=52
2r	8G\L
.	8G\J
.	8G\
.	8r
=53	=53
2r	8c\L
.	8c\J
.	8.A\L
.	16c\Jk
=54	=54
2r	8A\L
.	8A\J
.	8.A\L
.	16G\Jk
=55	=55
2r	8G\L
.	[8A\J
.	8.A\L]
.	16A\Jk
=56	=56
2r	8G\L
.	8G\J
.	8G\
.	8r
=57	=57
2r	8E\L
.	8E\J
.	8D\
.	8r
=58	=58
2r	8E\L
.	8E\J
.	8D\
.	8r
=59	=59
2r	8E\L
.	8G\J
.	8.G\L
.	16A\Jk
=60	=60
!!pagebreak:default
2r	8G\L
.	8G\J
.	8G\
.	8r
=61	=61
2r	8.r
.	16G\
.	12G\L
.	12E\
.	12A\J
=62	=62
2r	8G\L
.	8G\J
.	8G\
.	8r
=63	=63
2r	8E\L
.	8E\J
.	8D\
.	8r
=64	=64
2r	8E\L
.	8E\J
.	8D\
.	8r
=65	=65
2r	8E\L
.	8G\J
.	8.G\L
.	16A\Jk
=66	=66
2r	8G\L
.	8G\J
.	8G\
.	8r
=67	=67
2r	8.E\L
.	16G\Jk
.	12G\L
.	12E\
.	12A\J
=68	=68
2r	8G\L
.	8G\J
.	8G\
.	8r
=69	=69
2r	8E\L
.	8E\J
.	8D\
.	8r
=70	=70
2r	8E\L
.	8E\J
.	8D\
.	8r
=71	=71
2r	8E\L
.	8E\J
.	8D\
.	8r
=72	=72
2r	4r
.	8.r
.	16A\
=73	=73
2r	4A\
.	8.G\L
.	16E\Jk
=74	=74
2r	4E\
.	8G\
.	8r
=75	=75
2r	8A\L
.	[8G\J
.	8.G\L]
.	16E\Jk
=76	=76
2r	4E\
.	8E\
.	8r
=77	=77
2r	4G\
.	8.G\L
.	16E\Jk
=78	=78
2r	4E\
.	8D\
.	8r
=79	=79
2r	8C/L
.	8G/J
.	8.G\L
.	16G\Jk
=80	=80
2r	8G\L
.	8G\J
.	8G\
.	8r
=81	=81
2r	8C/L
.	8G/J
.	8.G\L
.	16G\Jk
=82	=82
2r	8G\L
.	8G\J
.	8G\
.	8r
=83	=83
2r	8E\L
.	8E\J
.	8D\
.	8r
=84	=84
2r	8E\L
.	8E\J
.	8D\
.	8r
=85	=85
2r	8E\L
.	8G\J
.	8.G\L
.	16G\Jk
=86	=86
2r	8G\L
.	8G\J
.	8G\
.	8r
=87	=87
2r	8C/L
.	8G/J
.	8.G\L
.	16G\Jk
=88	=88
2r	8G\L
.	8G\J
.	8G\
.	8r
=89	=89
2r	8E\L
.	8E\J
.	8D\
.	8r
=90	=90
2r	8E\L
.	8E\J
.	8D\
.	8r
=91	=91
2r	8E\L
.	8G\J
.	8.G\L
.	16A\Jk
=92	=92
2r	8G\L
.	8G\J
.	8G\
.	8r
==	==
*-	*-
